UI/Weather/SVG/rain-freezing_solid_16px.svg

<svg width="16" height="16" viewBox="0 0 16 16" fill="none" xmlns="http://www.w3.org/2000/svg">
<path d="M3 11H5V12L4 15L3 12V11ZM7 12L8 15L9 12V11H7V12ZM11 12L12 15L13 12V11H11V12ZM13 6.00002H12C12 5.20437 11.6839 4.44131 11.1213 3.8787C10.5587 3.31609 9.79565 3.00002 9 3.00002H8.83C8.5949 2.33169 8.13085 1.76813 7.52005 1.40915C6.90924 1.05018 6.1911 0.918958 5.49282 1.03873C4.79454 1.15851 4.16118 1.52154 3.70492 2.06355C3.24866 2.60555 2.99894 3.29154 3 4.00002V5.00002C2.33696 5.00002 1.70107 5.26341 1.23223 5.73225C0.763392 6.20109 0.5 6.83698 0.5 7.50002C0.5 8.16306 0.763392 8.79895 1.23223 9.26779C1.70107 9.73663 2.33696 10 3 10H4H13C13.5304 10 14.0391 9.78931 14.4142 9.41423C14.7893 9.03916 15 8.53045 15 8.00002C15 7.46959 14.7893 6.96088 14.4142 6.58581C14.0391 6.21073 13.5304 6.00002 13 6.00002Z" fill="#0F1621"/>
</svg>

<svg xmlns="http://www.w3.org/2000/svg" width="16" height="16" viewBox="0 0 16 16"><rect width="16" height="16" style="fill:none"/><path d="M3,11H5v1L4,15,3,12Zm4,1,1,3,1-3V11H7Zm4,0,1,3,1-3V11H11Zm2-6H12A3,3,0,0,0,9,3L8.83,3A3,3,0,0,0,3,4v1A2.5,2.5,0,0,0,3,10L4,10h9a2,2,0,0,0,0-4Z"/></svg>
